X:327
T:Sheebeg, Sheemore
M:3/4
L:1/8
K:G
ga | b3 a g2 | g3 a g2 | e4 d2 | B4 d2 | ed ef g2 | a4 ga | b4 a2 | g4 b2 | 
e4 a2 | d4 g2 | B4 A2 | G4 b2 | e4 a2 | d4 gf | g4 f2 | g4 :|| 
ga | b3 a g2 | ag ab d'2 | e'4 d'2 | b3 a g2 | a4 d'2 | b4 a2 | g4 e2 | d4 ed | 
B4 A2 | G4 b2 | e4 a2 | d4 d'2 | e'd' c'b ag | a2 ba gf | g4 f2 | g4 :| 

